svgs/sharp-regular/file-import.svg

<svg xmlns="http://www.w3.org/2000/svg" viewBox="0 0 512 512"><!--! Font Awesome Pro 6.6.0 by @fontawesome - https://fontawesome.com License - https://fontawesome.com/license (Commercial License) Copyright 2024 Fonticons, Inc. --><path d="M464 464l-288 0 0-96-48 0 0 96 0 48 48 0 288 0 48 0 0-48 0-336L384 0 176 0 128 0l0 48 0 208 48 0 0-208 176 0 0 112 112 0 0 304zM297 215l-17-17L246.1 232l17 17 39 39L24 288 0 288l0 48 24 0 278.1 0-39 39-17 17L280 425.9l17-17 80-80 17-17-17-17-80-80z"/></svg>

<svg xmlns="http://www.w3.org/2000/svg" viewBox="0 0 512 512"><!--! Font Awesome Pro 6.4.0 by @fontawesome - https://fontawesome.com License - https://fontawesome.com/license (Commercial License) Copyright 2023 Fonticons, Inc. --><path d="M464 464H176V368H128v96 48h48H464h48V464 128L384 0H176 128V48 256h48V48H352V160H464V464zM297 215l-17-17L246.1 232l17 17 39 39H24 0v48H24 302.1l-39 39-17 17L280 425.9l17-17 80-80 17-17-17-17-80-80z"/></svg>
